X:228
T: Die verkaufte Muellerin
N: Q0086a
O: Mitteleuropa, Deutschland (BRD) , Hessen, Nassau
R: Ballade, Menschenhandel, Rettung, Hinrichtung
M: 4/4
L: 1/8
K: G
D2 | G3GG2A2 | F2F2F2
D2 | G3GG2A2 | F2F2F2
D2 | G2B2BAG2 | c2e2e2
e2 | d2d2dcc2 | c2B2z2

